X:097
T:Waltz TS.097
M:3/8
L:1/8
Q:3/8=50
S:Thomas Sands’ MS,1810,Lincolnshire
R:waltz
O:England;Lincolnshire
Z:vmp.Ruairidh Greig, 2011
K:Bb
F|d2c|BBd|(c/e/)(c/A/)(B/d/)|F2d|f2e|d2f|g/e/d/c/B/A/|B2:|
|:F|BB/c/d/e/|fdf|gg/a/b/g/|fdf|ece|dB/d/e/d/|c/d/e/c/B/A/|B2:|
|:d|e/c/A/c/e/c/|d/B/F/B/d/B/|e/c/A/c/e/c/|.f.f (d/f/)|e/c/A/c/e/c/|d/B/F/B/d/B/|c/A/F/A/c/A/|B2:|

